src/assets/icons/cart-minus.svg

<svg width="14" height="14" viewBox="0 0 14 14" fill="none" xmlns="http://www.w3.org/2000/svg">
<g id="cart-minus">
<g clip-path="url(#clip0_295_4732)">
<path id="Vector" fill-rule="evenodd" clip-rule="evenodd" d="M0.6 0.400024C0.268629 0.400024 0 0.668653 0 1.00002C0 1.33139 0.268629 1.60002 0.6 1.60002H1.69925L3.20968 9.90735C3.26155 10.1926 3.51003 10.4 3.8 10.4H11.8C12.0753 10.4 12.3153 10.2126 12.3821 9.94554L13.9821 3.54554C14.0269 3.3663 13.9866 3.17641 13.8729 3.03078C13.7592 2.88515 13.5848 2.80002 13.4 2.80002H3.13711L2.79032 0.892693C2.73845 0.607399 2.48997 0.400024 2.2 0.400024H0.6ZM4.30074 9.20002L3.35529 4.00002H12.6315L11.3315 9.20002H4.30074ZM6.31201 6.00002C5.98064 6.00002 5.71201 6.26865 5.71201 6.60002C5.71201 6.93139 5.98064 7.20002 6.31201 7.20002H9.51201C9.84338 7.20002 10.112 6.93139 10.112 6.60002C10.112 6.26865 9.84338 6.00002 9.51201 6.00002H6.31201ZM5.2 11.2C4.53726 11.2 4 11.7373 4 12.4C4 13.0628 4.53726 13.6 5.2 13.6C5.86274 13.6 6.4 13.0628 6.4 12.4C6.4 11.7373 5.86274 11.2 5.2 11.2ZM9.2 12.4C9.2 11.7373 9.73725 11.2 10.4 11.2C11.0627 11.2 11.6 11.7373 11.6 12.4C11.6 13.0628 11.0627 13.6 10.4 13.6C9.73725 13.6 9.2 13.0628 9.2 12.4Z" fill="black"/>
</g>
</g>
<defs>
<clipPath id="clip0_295_4732">
<rect width="14" height="14" fill="white"/>
</clipPath>
</defs>
</svg>

<svg xmlns="http://www.w3.org/2000/svg" fill="none" viewBox="0 0 14 14"><g clip-path="url(#a)"><path fill="#000" fill-rule="evenodd" d="M.6.4a.6.6 0 1 0 0 1.2h1.1l1.51 8.307a.6.6 0 0 0 .59.493h8a.6.6 0 0 0 .582-.454l1.6-6.4A.6.6 0 0 0 13.4 2.8H3.137L2.79.893A.6.6 0 0 0 2.2.4zm3.7 8.8L3.356 4h9.277l-1.3 5.2zM6.313 6a.6.6 0 0 0 0 1.2h3.2a.6.6 0 0 0 0-1.2zM5.2 11.2a1.2 1.2 0 1 0 0 2.4 1.2 1.2 0 0 0 0-2.4m4 1.2a1.2 1.2 0 1 1 2.4 0 1.2 1.2 0 0 1-2.4 0" clip-rule="evenodd"/></g><defs><clipPath id="a"><path fill="#fff" d="M0 0h14v14H0z"/></clipPath></defs></svg>
